icone/orizzontale-marchio-pausa-caffe.svg

<svg width="214" height="42" viewBox="0 0 214 42" fill="none" xmlns="http://www.w3.org/2000/svg">
<path d="M98.9907 37.0618C101.995 40.2281 106.169 42.0091 110.531 42.0001C119.149 42.0001 127.217 35.6136 129.34 33.8055C129.43 33.7426 129.52 33.6706 129.601 33.5897C129.61 33.5807 129.619 33.5807 129.619 33.5807C131.58 31.8716 134.917 27.9047 135.286 20.5377C135.61 14.0792 132.974 10.679 130.393 9.65357C128.945 9.07788 127.505 9.28477 126.741 10.1933C126.372 10.625 125.661 11.8484 126.903 13.9353C128.594 16.6338 128.108 20.1509 125.742 22.2918C124.024 20.043 122.162 17.9111 120.156 15.9052C113.41 9.15884 105.188 3.73476 102.517 6.40632C102.445 6.47828 102.382 6.55924 102.328 6.64919C102.31 6.66718 102.292 6.68517 102.274 6.70316C102.058 6.94603 101.779 7.28784 101.455 7.69263C100.196 6.27139 98.5139 5.30891 96.6519 4.94011C94.8079 4.69724 92.9549 5.37188 91.6956 6.73914C89.6627 8.6731 88.8081 11.5515 89.4738 14.2771C89.9325 16.0941 90.895 17.7402 92.2353 19.0445C92.9549 19.7551 93.7555 20.3848 94.619 20.8975C93.3777 26.1327 93.8994 31.9795 98.9907 37.0618ZM94.9608 11.1378C95.1137 10.8139 95.3836 10.5621 95.7164 10.4451C96.0043 10.3642 96.3191 10.4002 96.58 10.5531C97.2636 10.9759 97.8573 11.5336 98.316 12.1992C97.6414 13.3146 97.0297 14.466 96.481 15.6443C95.2667 14.6189 94.0343 12.9008 94.9608 11.1378ZM100.07 35.9734C90.8411 26.7444 98.1901 14.5469 101.968 9.52764C102.094 10.0943 102.274 10.652 102.499 11.1917C103.92 14.6998 107.473 19.5033 112.007 24.0368L112.519 24.5405C117.098 29.0201 122.774 33.2568 126.525 34.0754C121.506 37.8534 109.299 45.2024 100.07 35.9734ZM104.397 11.6595C106.691 11.7135 108.831 12.8109 110.226 14.6369C111.269 16.0311 111.26 17.7762 111.26 19.4583C111.26 19.998 111.26 20.5377 111.296 21.0774C108.579 18.2709 106.259 15.1046 104.397 11.6595ZM128.216 13.1347C127.703 12.2802 127.586 11.5425 127.901 11.1737C128.468 10.769 129.214 10.724 129.817 11.0658C131.805 11.8574 134.027 14.7898 133.739 20.4477C133.397 27.2391 130.366 30.8641 128.594 32.4113C128.576 32.4203 128.576 32.4383 128.558 32.4563C128.549 32.4743 128.513 32.4743 128.504 32.4923C128.468 32.5102 128.423 32.5372 128.387 32.5642C127.604 32.969 125.634 32.4383 122.909 30.8371C125.274 30.2884 127.406 28.9841 128.98 27.1221C129.169 26.9153 129.223 26.6184 129.124 26.3576C129.025 26.0967 128.801 25.8988 128.522 25.8628C128.243 25.8179 127.964 25.9348 127.793 26.1507C126.057 28.1386 123.628 29.3799 121.002 29.6318C119.428 28.5434 117.907 27.365 116.468 26.0967C116.864 26.1507 117.269 26.1867 117.719 26.2136C120.678 26.4925 123.628 25.7009 126.057 23.9918L126.066 23.9828C129.547 21.5092 130.483 16.7507 128.216 13.1347ZM119.068 16.9756C121.02 18.9276 122.846 21.0054 124.519 23.2003C122.486 24.3696 120.147 24.8824 117.809 24.6845C115.749 24.5765 114.39 24.1537 113.662 23.3982C112.789 22.4986 112.789 21.0954 112.798 19.4583C112.798 17.6143 112.807 15.5184 111.458 13.7104C109.614 11.3357 106.744 9.99538 103.74 10.1033C103.164 8.4842 103.38 7.80956 103.506 7.59368L103.524 7.5577C103.542 7.52172 103.569 7.49473 103.596 7.46775C104.847 6.24441 111.332 9.24879 119.068 16.9756ZM93.3147 17.9651C92.1723 16.8587 91.3628 15.4644 90.967 13.9263C90.4363 11.7135 91.1289 9.38371 92.793 7.81856C93.7195 6.79311 95.0868 6.28938 96.463 6.45129C98.0552 6.8021 99.4764 7.66564 100.52 8.90697C100.106 9.47366 99.6563 10.1123 99.1886 10.8229C98.6758 10.1663 98.0462 9.61759 97.3266 9.20381C96.7059 8.853 95.9683 8.77204 95.2847 8.97893C94.556 9.21281 93.9534 9.73452 93.6206 10.4182C92.2983 12.9008 93.7915 15.5274 95.8693 17.1016C95.5725 17.8302 95.3026 18.5858 95.0688 19.3593C94.4211 18.9635 93.8454 18.4958 93.3147 17.9651Z" fill="#F9F5F1"/>
<path d="M102.256 26.2408C99.5663 28.9214 99.0806 32.8073 101.167 34.9031C101.419 35.146 101.698 35.3619 102.004 35.5328C102.013 35.5418 102.031 35.5418 102.04 35.5508C102.796 35.9825 103.65 36.1984 104.514 36.1894C106.529 36.1175 108.436 35.2629 109.821 33.8057C112.51 31.1252 112.996 27.2393 110.909 25.1434C108.822 23.0475 104.936 23.5602 102.256 26.2408ZM103.344 27.3292C104.442 26.1598 105.962 25.4582 107.563 25.3773C107.914 25.3773 108.265 25.4312 108.606 25.5392C108.373 26.0069 108.229 26.5196 108.175 27.0414C108.121 28.2467 107.149 29.2182 105.944 29.2722C104.064 29.4251 102.562 30.9183 102.409 32.8073C102.382 33.1221 102.301 33.4279 102.175 33.7158C100.79 32.1956 101.302 29.3621 103.344 27.3292ZM108.741 32.7353C107.131 34.3454 105.044 35.0021 103.479 34.5343C103.713 34.0666 103.866 33.5539 103.92 33.0231C103.974 31.8178 104.945 30.8463 106.151 30.7923C108.031 30.6394 109.533 29.1462 109.686 27.2573C109.713 26.9424 109.794 26.6366 109.92 26.3487C111.296 27.8689 110.792 30.6934 108.741 32.7353Z" fill="#F9F5F1"/>
<path d="M122.909 7.76471C123.206 7.83667 123.503 7.88164 123.808 7.88164C124.465 7.89963 125.104 7.65676 125.581 7.20701C126.228 6.4784 126.444 5.46195 126.138 4.53545C125.841 3.49201 125.275 2.53852 124.492 1.78293C123.737 1.00035 122.783 0.433657 121.74 0.136817C120.813 -0.169018 119.797 0.046866 119.068 0.694517C118.42 1.42312 118.205 2.43958 118.51 3.36608C118.807 4.40951 119.374 5.363 120.156 6.11859C120.912 6.91017 121.857 7.47686 122.909 7.76471ZM120.156 1.78293C120.345 1.62102 120.588 1.54006 120.84 1.55805C121.02 1.55805 121.2 1.58504 121.38 1.63001C122.153 1.85489 122.855 2.28666 123.422 2.87134C124.006 3.42904 124.438 4.13067 124.663 4.91324C124.816 5.31803 124.762 5.77678 124.51 6.12759C124.159 6.37945 123.701 6.44242 123.296 6.28051C122.522 6.05563 121.821 5.62386 121.254 5.03918C120.669 4.48148 120.237 3.77985 120.013 3.00627C119.842 2.59249 119.896 2.13374 120.156 1.78293Z" fill="#F9F5F1"/>
<path d="M65.4634 23.3887C65.4634 21.8119 65.7567 20.4275 66.3435 19.2357C66.9486 18.0438 67.7645 17.1271 68.7913 16.4853C69.8181 15.8436 70.9641 15.5227 72.2293 15.5227C73.3111 15.5227 74.2554 15.7427 75.0622 16.1828C75.8873 16.6228 76.5199 17.2004 76.9599 17.9155V15.7427H81.6631V31.0898H76.9599V28.917C76.5015 29.6321 75.8598 30.2097 75.0347 30.6497C74.2279 31.0898 73.2836 31.3098 72.2018 31.3098C70.9549 31.3098 69.8181 30.9889 68.7913 30.3472C67.7645 29.6871 66.9486 28.7611 66.3435 27.5693C65.7567 26.3591 65.4634 24.9656 65.4634 23.3887ZM76.9599 23.4162C76.9599 22.2427 76.6299 21.3168 75.9698 20.6384C75.328 19.9599 74.5396 19.6207 73.6045 19.6207C72.6693 19.6207 71.8717 19.9599 71.2117 20.6384C70.5699 21.2985 70.249 22.2152 70.249 23.3887C70.249 24.5622 70.5699 25.4974 71.2117 26.1941C71.8717 26.8725 72.6693 27.2117 73.6045 27.2117C74.5396 27.2117 75.328 26.8725 75.9698 26.1941C76.6299 25.5157 76.9599 24.5897 76.9599 23.4162Z" fill="#F9F5F1"/>
<path d="M58.1309 31.3098C56.7924 31.3098 55.6006 31.0806 54.5555 30.6222C53.5103 30.1638 52.6852 29.5404 52.0801 28.752C51.4751 27.9452 51.1358 27.0467 51.0625 26.0566H55.7106C55.7656 26.5883 56.0132 27.0192 56.4532 27.3493C56.8933 27.6793 57.4342 27.8443 58.0759 27.8443C58.6627 27.8443 59.1119 27.7343 59.4236 27.5143C59.7537 27.2759 59.9187 26.9734 59.9187 26.6067C59.9187 26.1666 59.6895 25.8457 59.2311 25.644C58.7727 25.424 58.0301 25.1856 57.0033 24.9289C55.9031 24.6722 54.9864 24.4064 54.2529 24.1313C53.5195 23.838 52.8869 23.3887 52.3552 22.7837C51.8234 22.1602 51.5576 21.326 51.5576 20.2808C51.5576 19.4007 51.7959 18.6031 52.2727 17.888C52.7677 17.1546 53.4828 16.577 54.4179 16.1553C55.3714 15.7335 56.4991 15.5227 57.8009 15.5227C59.7262 15.5227 61.2389 15.9994 62.339 16.9529C63.4575 17.9063 64.0993 19.1715 64.2643 20.7484H59.9187C59.8453 20.2166 59.607 19.7949 59.2036 19.4832C58.8185 19.1715 58.3051 19.0156 57.6634 19.0156C57.1133 19.0156 56.6916 19.1257 56.3982 19.3457C56.1048 19.5474 55.9582 19.8316 55.9582 20.1983C55.9582 20.6384 56.1874 20.9684 56.6457 21.1884C57.1225 21.4085 57.8559 21.6285 58.846 21.8485C59.9829 22.1419 60.9088 22.4353 61.6239 22.7286C62.339 23.0037 62.9624 23.4621 63.4942 24.1038C64.0442 24.7272 64.3284 25.5707 64.3468 26.6342C64.3468 27.5326 64.0901 28.3394 63.5767 29.0545C63.0816 29.7513 62.3574 30.3013 61.4039 30.7047C60.4688 31.1081 59.3778 31.3098 58.1309 31.3098Z" fill="#F9F5F1"/>
<path d="M49.3345 15.742V31.089H44.6314V28.9988C44.1547 29.6772 43.5038 30.2273 42.6786 30.649C41.8719 31.0524 40.9734 31.2541 39.9833 31.2541C38.8098 31.2541 37.7738 30.9974 36.8754 30.484C35.9769 29.9522 35.2801 29.1913 34.7851 28.2012C34.29 27.211 34.0425 26.0467 34.0425 24.7082V15.742H38.7181V24.0756C38.7181 25.1024 38.984 25.9 39.5157 26.4684C40.0475 27.0368 40.7626 27.321 41.661 27.321C42.5778 27.321 43.3021 27.0368 43.8338 26.4684C44.3655 25.9 44.6314 25.1024 44.6314 24.0756V15.742H49.3345Z" fill="#F9F5F1"/>
<path d="M15.4023 23.3887C15.4023 21.8119 15.6957 20.4275 16.2825 19.2357C16.8875 18.0438 17.7035 17.1271 18.7303 16.4853C19.7571 15.8436 20.9031 15.5227 22.1683 15.5227C23.2501 15.5227 24.1944 15.7427 25.0011 16.1828C25.8262 16.6228 26.4588 17.2004 26.8989 17.9155V15.7427H31.602V31.0898H26.8989V28.917C26.4405 29.6321 25.7987 30.2097 24.9736 30.6497C24.1669 31.0898 23.2226 31.3098 22.1408 31.3098C20.8939 31.3098 19.7571 30.9889 18.7303 30.3472C17.7035 29.6871 16.8875 28.7611 16.2825 27.5693C15.6957 26.3591 15.4023 24.9656 15.4023 23.3887ZM26.8989 23.4162C26.8989 22.2427 26.5688 21.3168 25.9088 20.6384C25.267 19.9599 24.4786 19.6207 23.5434 19.6207C22.6083 19.6207 21.8107 19.9599 21.1506 20.6384C20.5089 21.2985 20.188 22.2152 20.188 23.3887C20.188 24.5622 20.5089 25.4974 21.1506 26.1941C21.8107 26.8725 22.6083 27.2117 23.5434 27.2117C24.4786 27.2117 25.267 26.8725 25.9088 26.1941C26.5688 25.5157 26.8989 24.5897 26.8989 23.4162Z" fill="#F9F5F1"/>
<path d="M14.7145 17.9961C14.7145 19.1146 14.4578 20.1414 13.9444 21.0765C13.431 21.9933 12.6425 22.7359 11.5791 23.3043C10.5156 23.8727 9.19541 24.1569 7.61853 24.1569H4.70313V31.0879H0V11.7803H7.61853C9.15873 11.7803 10.4606 12.0461 11.5241 12.5779C12.5875 13.1096 13.3851 13.843 13.9169 14.7782C14.4486 15.7133 14.7145 16.7859 14.7145 17.9961ZM7.26098 20.4164C8.15943 20.4164 8.82869 20.2056 9.26875 19.7839C9.70881 19.3621 9.92884 18.7662 9.92884 17.9961C9.92884 17.226 9.70881 16.6301 9.26875 16.2084C8.82869 15.7866 8.15943 15.5758 7.26098 15.5758H4.70313V20.4164H7.26098Z" fill="#F9F5F1"/>
<path d="M214 23.1669C214 23.607 213.972 24.0654 213.917 24.5421H203.273C203.347 25.4956 203.649 26.229 204.181 26.7424C204.731 27.2375 205.4 27.485 206.189 27.485C207.362 27.485 208.178 26.9899 208.637 25.9998H213.642C213.385 27.0083 212.918 27.9159 212.239 28.7227C211.579 29.5295 210.745 30.162 209.737 30.6204C208.728 31.0788 207.601 31.308 206.354 31.308C204.85 31.308 203.512 30.9871 202.338 30.3454C201.165 29.7036 200.248 28.7868 199.588 27.595C198.928 26.4032 198.598 25.0097 198.598 23.4145C198.598 21.8192 198.919 20.4257 199.56 19.2339C200.22 18.0421 201.137 17.1253 202.311 16.4835C203.484 15.8418 204.832 15.5209 206.354 15.5209C207.839 15.5209 209.159 15.8326 210.314 16.456C211.469 17.0794 212.368 17.9687 213.01 19.1239C213.67 20.279 214 21.6267 214 23.1669ZM209.187 21.9293C209.187 21.1225 208.912 20.4807 208.361 20.004C207.811 19.5273 207.124 19.2889 206.299 19.2889C205.51 19.2889 204.841 19.5181 204.291 19.9765C203.759 20.4349 203.429 21.0858 203.301 21.9293H209.187ZM209.517 11.3403V14.5858L202.888 11.8079V8.1499L209.517 11.3403Z" fill="#F9F5F1"/>
<path d="M198.148 19.6458H195.618V31.0873H190.915V19.6458H189.209V15.7403H190.915V15.3002C190.915 13.4116 191.456 11.9814 192.537 11.0096C193.619 10.0195 195.205 9.52441 197.296 9.52441C197.644 9.52441 197.901 9.53358 198.066 9.55192V13.54C197.167 13.4849 196.535 13.6133 196.168 13.925C195.801 14.2367 195.618 14.796 195.618 15.6027V15.7403H198.148V19.6458Z" fill="#F9F5F1"/>
<path d="M190.062 19.6455H187.532V31.0871H182.829V19.6455H181.124V15.74H182.829V15.3C182.829 13.4114 183.37 11.9812 184.451 11.0094C185.533 10.0193 187.119 9.52419 189.21 9.52419C189.558 9.52419 189.815 9.53335 189.98 9.55169V13.5397C189.081 13.4847 188.449 13.6131 188.082 13.9248C187.715 14.2365 187.532 14.7957 187.532 15.6025V15.74H190.062V19.6455Z" fill="#F9F5F1"/>
<path d="M163.584 23.3888C163.584 21.8119 163.877 20.4275 164.464 19.2357C165.069 18.0439 165.885 17.1271 166.912 16.4853C167.939 15.8436 169.085 15.5227 170.35 15.5227C171.432 15.5227 172.376 15.7427 173.183 16.1828C174.008 16.6229 174.64 17.2004 175.081 17.9155V15.7427H179.784V31.0898H175.081V28.917C174.622 29.6321 173.98 30.2097 173.155 30.6497C172.348 31.0898 171.404 31.3098 170.322 31.3098C169.076 31.3098 167.939 30.989 166.912 30.3472C165.885 29.6871 165.069 28.7612 164.464 27.5693C163.877 26.3592 163.584 24.9656 163.584 23.3888ZM175.081 23.4163C175.081 22.2428 174.75 21.3168 174.09 20.6384C173.449 19.96 172.66 19.6208 171.725 19.6208C170.79 19.6208 169.992 19.96 169.332 20.6384C168.691 21.2985 168.37 22.2153 168.37 23.3888C168.37 24.5623 168.691 25.4974 169.332 26.1941C169.992 26.8726 170.79 27.2118 171.725 27.2118C172.66 27.2118 173.449 26.8726 174.09 26.1941C174.75 25.5157 175.081 24.5898 175.081 23.4163Z" fill="#F9F5F1"/>
<path d="M143.597 21.4073C143.597 19.5004 144.009 17.8043 144.834 16.3191C145.659 14.8156 146.805 13.6513 148.272 12.8262C149.758 11.9827 151.435 11.561 153.305 11.561C155.597 11.561 157.559 12.1661 159.191 13.3762C160.823 14.5864 161.914 16.2366 162.464 18.3269H157.294C156.908 17.5201 156.358 16.9059 155.643 16.4842C154.947 16.0624 154.149 15.8516 153.25 15.8516C151.802 15.8516 150.628 16.3558 149.73 17.3643C148.832 18.3728 148.382 19.7204 148.382 21.4073C148.382 23.0942 148.832 24.4419 149.73 25.4504C150.628 26.4588 151.802 26.9631 153.25 26.9631C154.149 26.9631 154.947 26.7522 155.643 26.3305C156.358 25.9088 156.908 25.2945 157.294 24.4877H162.464C161.914 26.578 160.823 28.2282 159.191 29.4384C157.559 30.6302 155.597 31.2262 153.305 31.2262C151.435 31.2262 149.758 30.8136 148.272 29.9885C146.805 29.145 145.659 27.9807 144.834 26.4955C144.009 25.0103 143.597 23.3143 143.597 21.4073Z" fill="#F9F5F1"/>
</svg>

<svg xmlns="http://www.w3.org/2000/svg" width="214" height="42" fill="none" viewBox="0 0 214 42">
  <path fill="#F9F5F1" d="M98.99 37.062A15.86 15.86 0 0 0 110.532 42c8.618 0 16.686-6.386 18.809-8.194.09-.063.18-.135.261-.216.009-.01.018-.01.018-.01 1.961-1.708 5.298-5.675 5.667-13.042.324-6.459-2.312-9.859-4.893-10.884-1.448-.576-2.888-.37-3.652.54-.369.431-1.08 1.654.162 3.741a6.56 6.56 0 0 1-1.161 8.357 64 64 0 0 0-5.586-6.387c-6.746-6.746-14.968-12.17-17.639-9.499a1.3 1.3 0 0 0-.189.243l-.054.054c-.216.243-.495.585-.819.99a8.65 8.65 0 0 0-4.803-2.753 5.73 5.73 0 0 0-4.956 1.8 7.85 7.85 0 0 0-2.222 7.537 10.1 10.1 0 0 0 2.761 4.768c.72.71 1.52 1.34 2.384 1.852-1.241 5.236-.72 11.083 4.372 16.165m-4.03-25.924a1.33 1.33 0 0 1 .756-.693c.288-.08.603-.045.864.108.684.423 1.277.98 1.736 1.646a36 36 0 0 0-1.835 3.445c-1.214-1.025-2.447-2.743-1.52-4.506m5.11 24.835c-9.229-9.229-1.88-21.426 1.898-26.445a10 10 0 0 0 .531 1.664c1.421 3.508 4.974 8.311 9.508 12.845l.512.504c4.579 4.48 10.255 8.716 14.006 9.534-5.019 3.778-17.226 11.127-26.455 1.898M104.4 11.66a7.56 7.56 0 0 1 5.829 2.977c1.043 1.394 1.034 3.14 1.034 4.821 0 .54 0 1.08.036 1.62a42.8 42.8 0 0 1-6.899-9.418m23.819 1.475c-.513-.855-.63-1.592-.315-1.961a1.78 1.78 0 0 1 1.916-.108c1.988.791 4.21 3.724 3.922 9.382-.342 6.791-3.373 10.416-5.145 11.963-.018.01-.018.027-.036.045-.009.018-.045.018-.054.036a1 1 0 0 0-.117.072c-.783.405-2.753-.126-5.478-1.727a11.3 11.3 0 0 0 6.071-3.715.74.74 0 0 0 .144-.764.76.76 0 0 0-.602-.495.78.78 0 0 0-.729.288 10.32 10.32 0 0 1-6.791 3.48 49 49 0 0 1-4.534-3.534c.396.054.801.09 1.251.117a12.45 12.45 0 0 0 8.338-2.222l.009-.01c3.481-2.473 4.417-7.231 2.15-10.847m-9.148 3.84a62 62 0 0 1 5.451 6.225 11.5 11.5 0 0 1-6.71 1.485c-2.06-.108-3.419-.531-4.147-1.287-.873-.9-.873-2.303-.864-3.94 0-1.844.009-3.94-1.34-5.748a9.34 9.34 0 0 0-7.718-3.607c-.576-1.619-.36-2.293-.234-2.51l.018-.035a.4.4 0 0 1 .072-.09c1.251-1.224 7.736 1.78 15.472 9.508m-25.753.99a8.6 8.6 0 0 1-2.348-4.039 6.35 6.35 0 0 1 1.826-6.107 4.26 4.26 0 0 1 3.67-1.368 7.36 7.36 0 0 1 4.057 2.456 48 48 0 0 0-1.331 1.916 6.4 6.4 0 0 0-1.862-1.62 2.6 2.6 0 0 0-2.042-.224 2.8 2.8 0 0 0-1.664 1.44c-1.323 2.482.17 5.108 2.248 6.683a26 26 0 0 0-.8 2.257 9.4 9.4 0 0 1-1.754-1.394"/>
  <path fill="#F9F5F1" d="M102.256 26.24c-2.69 2.681-3.175 6.567-1.089 8.663.252.243.531.459.837.63.009.009.027.009.036.018.756.431 1.61.647 2.474.638a7.7 7.7 0 0 0 5.307-2.383c2.689-2.68 3.175-6.567 1.088-8.663s-5.973-1.583-8.653 1.098m1.088 1.09a6.23 6.23 0 0 1 4.219-1.953c.351 0 .702.054 1.043.162a4.4 4.4 0 0 0-.431 1.502 2.343 2.343 0 0 1-2.231 2.231 3.86 3.86 0 0 0-3.535 3.535 2.9 2.9 0 0 1-.234.909c-1.385-1.52-.873-4.354 1.169-6.387m5.397 5.405c-1.61 1.61-3.697 2.267-5.262 1.8.234-.468.387-.981.441-1.512a2.343 2.343 0 0 1 2.231-2.23 3.86 3.86 0 0 0 3.535-3.536 2.9 2.9 0 0 1 .234-.908c1.376 1.52.872 4.344-1.179 6.386m14.168-24.97c.297.072.594.117.899.117a2.5 2.5 0 0 0 1.773-.675 2.73 2.73 0 0 0 .557-2.672 6.2 6.2 0 0 0-1.646-2.752A6.2 6.2 0 0 0 121.74.137a2.73 2.73 0 0 0-2.672.558 2.73 2.73 0 0 0-.558 2.671 6.2 6.2 0 0 0 1.646 2.753 6 6 0 0 0 2.753 1.646m-2.753-5.982a.94.94 0 0 1 .684-.225c.18 0 .36.027.54.072a4.67 4.67 0 0 1 2.042 1.241 4.57 4.57 0 0 1 1.241 2.042 1.3 1.3 0 0 1-.153 1.215 1.27 1.27 0 0 1-1.214.153 4.67 4.67 0 0 1-2.042-1.242 4.6 4.6 0 0 1-1.241-2.033 1.24 1.24 0 0 1 .143-1.223M65.463 23.389q0-2.366.88-4.153.908-1.788 2.448-2.75 1.54-.963 3.438-.963 1.623 0 2.833.66 1.238.66 1.898 1.733v-2.173h4.703V31.09H76.96v-2.173q-.688 1.073-1.925 1.733-1.21.66-2.833.66a6.3 6.3 0 0 1-3.41-.963q-1.541-.99-2.448-2.778-.88-1.815-.88-4.18m11.497.027q0-1.76-.99-2.778a3.13 3.13 0 0 0-2.365-1.017q-1.404 0-2.393 1.017-.963.99-.963 2.75t.963 2.806q.99 1.018 2.392 1.018 1.404 0 2.366-1.018.99-1.017.99-2.778M58.13 31.31q-2.007 0-3.575-.688-1.567-.687-2.475-1.87a5.03 5.03 0 0 1-1.017-2.695h4.648q.082.797.742 1.292t1.623.495q.88 0 1.348-.33.495-.357.495-.907 0-.66-.688-.963-.686-.33-2.228-.715-1.65-.386-2.75-.798a4.94 4.94 0 0 1-1.898-1.347q-.797-.936-.797-2.503 0-1.32.715-2.393.743-1.1 2.145-1.733 1.43-.633 3.383-.632 2.888 0 4.538 1.43 1.678 1.43 1.925 3.795H59.92q-.11-.797-.715-1.265-.579-.467-1.54-.467-.825 0-1.266.33a.98.98 0 0 0-.44.852q0 .66.688.99.715.33 2.2.66 1.706.44 2.778.88 1.072.413 1.87 1.376.825.935.853 2.53 0 1.348-.77 2.42-.743 1.046-2.173 1.65-1.403.606-3.273.606m-8.797-15.568v15.347H44.63v-2.09q-.714 1.017-1.952 1.65-1.21.605-2.696.605-1.76 0-3.108-.77-1.347-.798-2.09-2.283t-.742-3.493v-8.966h4.675v8.334q0 1.54.798 2.392.798.853 2.145.853 1.375 0 2.173-.853.797-.853.797-2.392v-8.334zm-33.933 7.647q0-2.366.88-4.153.907-1.788 2.448-2.75 1.54-.963 3.438-.963 1.623 0 2.833.66 1.238.66 1.898 1.733v-2.173h4.703V31.09h-4.703v-2.173q-.688 1.073-1.925 1.733-1.21.66-2.833.66a6.3 6.3 0 0 1-3.41-.963q-1.542-.99-2.449-2.778-.88-1.815-.88-4.18m11.497.027q0-1.76-.99-2.778a3.13 3.13 0 0 0-2.366-1.017q-1.402 0-2.392 1.017-.963.99-.963 2.75t.963 2.806q.99 1.018 2.392 1.018 1.404 0 2.366-1.018.99-1.017.99-2.778m-12.184-5.42q0 1.678-.77 3.08-.771 1.376-2.366 2.228t-3.96.853H4.703v6.93H0V11.78h7.619q2.31 0 3.905.798 1.596.798 2.393 2.2t.797 3.218m-7.454 2.42q1.348 0 2.008-.632.66-.633.66-1.788t-.66-1.788-2.008-.632H4.703v4.84zM214 23.167q0 .66-.083 1.375h-10.644q.11 1.43.908 2.2.825.743 2.008.743 1.76 0 2.448-1.485h5.005a6.8 6.8 0 0 1-1.403 2.723q-.99 1.21-2.502 1.897-1.513.688-3.383.688-2.256 0-4.016-.963a6.85 6.85 0 0 1-2.75-2.75q-.99-1.788-.99-4.18 0-2.394.962-4.181a6.85 6.85 0 0 1 2.751-2.75q1.76-.963 4.043-.963 2.227 0 3.96.935a6.63 6.63 0 0 1 2.696 2.668q.99 1.733.99 4.043m-4.813-1.238q0-1.21-.826-1.925-.825-.715-2.062-.715-1.183 0-2.008.688-.798.687-.99 1.952zm.33-10.589v3.246l-6.629-2.778V8.15zm-11.369 8.306h-2.53v11.441h-4.703V19.646h-1.706V15.74h1.706v-.44q0-2.833 1.622-4.29 1.623-1.486 4.759-1.486.522 0 .77.028v3.988q-1.348-.083-1.898.385t-.55 1.678v.137h2.53z"/>
  <path fill="#F9F5F1" d="M190.062 19.646h-2.53v11.441h-4.703V19.645h-1.705V15.74h1.705v-.44q0-2.833 1.622-4.29 1.623-1.485 4.759-1.486.522 0 .77.028v3.988q-1.348-.083-1.898.385-.55.467-.55 1.677v.138h2.53zm-26.478 3.743q0-2.366.88-4.153.907-1.788 2.448-2.75 1.54-.963 3.438-.963 1.623 0 2.833.66 1.237.66 1.898 1.733v-2.173h4.703V31.09h-4.703v-2.173q-.689 1.073-1.926 1.733-1.21.66-2.833.66a6.3 6.3 0 0 1-3.41-.963q-1.54-.99-2.448-2.778-.88-1.815-.88-4.18m11.497.027q0-1.76-.991-2.778a3.13 3.13 0 0 0-2.365-1.017q-1.403 0-2.393 1.017-.962.99-.962 2.75t.962 2.806q.99 1.018 2.393 1.018t2.365-1.018q.99-1.017.991-2.778m-31.484-2.009q0-2.86 1.237-5.088 1.238-2.255 3.438-3.493 2.228-1.265 5.033-1.265 3.438 0 5.886 1.815t3.273 4.95h-5.17q-.579-1.209-1.651-1.842-1.044-.633-2.393-.632-2.173 0-3.52 1.512t-1.348 4.043 1.348 4.043q1.347 1.513 3.52 1.513 1.349 0 2.393-.633 1.072-.632 1.651-1.842h5.17q-.825 3.135-3.273 4.95-2.448 1.788-5.886 1.788-2.805 0-5.033-1.238a9 9 0 0 1-3.438-3.492q-1.237-2.229-1.237-5.089"/>
</svg>
